icons/storyblok-light.svg

<svg width="256" height="256" viewBox="0 0 256 256" fill="none" xmlns="http://www.w3.org/2000/svg">
<rect width="256" height="256" rx="60" fill="#F4F2ED"/>
<path d="M143.375 130.013H105.077V148.384H142.454C144.664 148.384 146.688 147.466 148.345 145.996C149.818 144.526 150.739 142.322 150.739 139.566C150.792 137.201 150.082 134.881 148.713 132.952C147.239 131.117 145.583 130.013 143.375 130.013ZM144.664 107.787C146.32 106.683 147.057 104.295 147.057 101.172C147.057 98.4164 146.32 96.397 145.031 95.111C143.741 94.0076 142.084 93.2742 140.244 93.2742H105.077V109.806H139.507C141.349 109.806 143.191 108.888 144.664 107.787Z" fill="#09B3AF"/>
<path d="M200.82 40H56.2852C51.6838 40 48 43.6737 48 48.0826V192.472C48 196.881 51.6838 199.637 56.101 199.637H77.4585V228.477L103.972 199.821H200.82C205.239 199.821 208 197.065 208 192.472V48.2667C208 43.8579 205.237 40.1842 200.636 40.1842L200.82 40ZM176.515 157.017C174.674 160.324 171.912 163.078 168.599 165.101C165.099 167.305 161.233 169.326 156.814 170.243C152.395 171.347 147.609 172.264 142.638 172.264H77.4585V69.3915H151.476C155.158 69.3915 158.287 70.1283 161.233 71.781C163.996 73.2495 166.574 75.2705 168.599 77.6583C172.722 82.6736 174.939 88.9855 174.858 95.4777C174.858 100.253 173.568 104.846 171.176 109.255C168.691 113.692 164.807 117.18 160.129 119.174C166.02 120.829 170.623 123.768 174.123 127.992C177.436 132.401 179.092 138.096 179.092 145.261C179.092 149.854 178.171 153.712 176.331 157.017H176.515Z" fill="#09B3AF"/>
</svg>

<svg xmlns="http://www.w3.org/2000/svg" width="256" height="256" fill="none"><rect width="256" height="256" fill="#F4F2ED" rx="60"/><path fill="#09B3AF" d="M143.375 130.013h-38.298v18.371h37.377c2.21 0 4.234-.918 5.891-2.388 1.473-1.47 2.394-3.674 2.394-6.43a11 11 0 0 0-2.026-6.614c-1.474-1.835-3.13-2.939-5.338-2.939m1.289-22.226c1.656-1.104 2.393-3.492 2.393-6.615 0-2.756-.737-4.775-2.026-6.061-1.29-1.103-2.947-1.837-4.787-1.837h-35.167v16.532h34.43c1.842 0 3.684-.918 5.157-2.019"/><path fill="#09B3AF" d="M200.82 40H56.285C51.684 40 48 43.674 48 48.083v144.389c0 4.409 3.684 7.165 8.101 7.165h21.358v28.84l26.513-28.656h96.848c4.419 0 7.18-2.756 7.18-7.349V48.267c0-4.41-2.763-8.083-7.364-8.083zm-24.305 117.017c-1.841 3.307-4.603 6.061-7.916 8.084-3.5 2.204-7.366 4.225-11.785 5.142-4.419 1.104-9.205 2.021-14.176 2.021h-65.18V69.391h74.018c3.682 0 6.811.737 9.757 2.39 2.763 1.468 5.341 3.49 7.366 5.877a27.52 27.52 0 0 1 6.259 17.82c0 4.775-1.29 9.368-3.682 13.777a23 23 0 0 1-11.047 9.919c5.891 1.655 10.494 4.594 13.994 8.818 3.313 4.409 4.969 10.104 4.969 17.269 0 4.593-.921 8.451-2.761 11.756z"/></svg>
